qtOgitor/res/icons/debuginfo.svg

<svg width="160" xmlns="http://www.w3.org/2000/svg" height="160" viewBox="0 0 128 128">
<path fill="#69db0e" d="m121.41,12.46c1.66-1.56 3.42,.69 2.69,2.41-1.09,11.19-6.64,21.36-12.37,30.81-.98,.61-1.97,1.18-2.99,1.71-.19-.23-.57-.7-.76-.94 4.81-7.85 9.61-16.04 11.59-25.12-7.7,9.25-15.57,18.35-24.26,26.71-.9-.34-1.8-.68-2.7-1.02 10.39-10.79 20.94-21.73 28.8-34.56z"/>
<path fill="#479409" d="m95.31,48.04c8.69-8.36 16.56-17.46 24.26-26.71-1.98,9.08-6.78,17.27-11.59,25.12-3.06,3.92-8.59,3.49-12.67,1.59z"/>
<path fill="#51aa0a" d="m95.31,48.04c4.08,1.9 9.61,2.33 12.67-1.59 .19,.24 .57,.71 .76,.94 1.02-.53 2.01-1.1 2.99-1.71-4.78,8.79-10.57,17.03-16.51,25.05-1.74,.68-3.52,1.3-5.24,2.05 .22-.88 .43-1.76 .63-2.65-6.54-.08-13.09,.22-19.62-.21 .52-.77 1.02-1.55 1.51-2.33-.39-.47-1.16-1.39-1.55-1.86 7.68-5.7 14.77-12.09 21.66-18.71 .9,.34 1.8,.68 2.7,1.02z"/>
<path fill="#4b9c09" d="m12.48,63.89c-.44-1.8-.56-5.84 2.45-4.52 3.16,2.39 5.3,5.9 8.49,8.28 7.86,6.29 18.46,10.04 28.52,7.89 6.97-1.8 13.22-5.64 19.01-9.81 .39,.47 1.16,1.39 1.55,1.86-.49,.78-.99,1.56-1.51,2.33-8.03,5.13-17.01,10.27-26.9,9.42-10.9-.55-20.79-6.4-28.1-14.25 .47,5.74 3.32,10.91 6.78,15.38 1.86,2.42 3.71,4.86 5.75,7.12 .91,.99 1.82,1.96 2.75,2.93-.89,.07-2.67,.2-3.57,.26l-.26,.02c-7.04-7.54-14.39-16.07-14.96-26.91z"/>
<path fill="#5bbc0b" d="m15.99,65.09c7.31,7.85 17.2,13.7 28.1,14.25 9.89,.85 18.87-4.29 26.9-9.42 6.53,.43 13.08,.13 19.62,.21-.2,.89-.41,1.77-.63,2.65-3.19,4.2-6.11,8.65-9.87,12.38 .57-1.46 1.06-2.95 1.54-4.44-4.75-.77-8.64,2.36-11.81,5.44-1.51,1.19-3.19,2.38-5.18,2.45-7.83,.59-15.85,.5-23.42-1.82-6.23-1.89-11.75-6.47-18.47-6.32-3.46-4.47-6.31-9.64-6.78-15.38z"/>
<path fill="#469108" d="m89.98,72.78c1.72-.75 3.5-1.37 5.24-2.05-4.74,6.82-9.87,13.37-14.99,19.92-.96-.24-2.89-.72-3.85-.96 .67-.96 1.38-1.9 2.11-2.82 .53-.58 1.07-1.15 1.62-1.71 3.76-3.73 6.68-8.18 9.87-12.38z"/>
<path fill="#75cb2f" d="m22.77,80.47c6.72-.15 12.24,4.43 18.47,6.32-4.23,.36-8.47,.73-12.72,.8-2.04-2.26-3.89-4.7-5.75-7.12z"/>
<path fill="#70c82a" d="m69.84,86.16c3.17-3.08 7.06-6.21 11.81-5.44-.48,1.49-.97,2.98-1.54,4.44-.55,.56-1.09,1.13-1.62,1.71-2.88-.33-5.77-.52-8.65-.71z"/>
<path fill="#8bd74e" d="m64.66,88.61c1.99-.07 3.67-1.26 5.18-2.45 2.88,.19 5.77,.38 8.65,.71-.73,.92-1.44,1.86-2.11,2.82-1.23,1.77-2.47,3.52-3.81,5.2-1.5-2.84-4.99-2.01-7.62-2.16-9.48,.32-18.98-.27-28.45,.28-.04,.56-.14,1.68-.18,2.23-1.79-1.45-3.46-3.05-5.05-4.72-.93-.97-1.84-1.94-2.75-2.93 4.25-.07 8.49-.44 12.72-.8 7.57,2.32 15.59,2.41 23.42,1.82z"/>
<path fill="#397707" d="m72.57,94.89c1.34-1.68 2.58-3.43 3.81-5.2 .96,.24 2.89,.72 3.85,.96-5.19,6.72-10.61,13.27-15.84,19.97-2.18,3.34-6.23,.76-8.96-.41-10.13-5.04-19.64-11.5-27.73-19.43 .9-.06 2.68-.19 3.57-.26 1.59,1.67 3.26,3.27 5.05,4.72 1.31,1.02 2.66,2 4.04,2.93 1.93,1.29 3.91,2.53 5.93,3.68 4.91,2.73 9.86,5.4 14.98,7.71 2.1-2.68 4.07-5.46 6.15-8.16 1.03-1.32 2.04-2.66 3.09-3.97 .68-.85 1.37-1.69 2.06-2.54z"/>
<path fill="#99de62" d="m36.5,93.01c9.47-.55 18.97,.04 28.45-.28 2.63,.15 6.12-.68 7.62,2.16-.69,.85-1.38,1.69-2.06,2.54-9.93-1.51-20.01,.07-29.96-1.31-.05,.51-.14,1.54-.19,2.05-1.38-.93-2.73-1.91-4.04-2.93 .04-.55 .14-1.67 .18-2.23z"/>
<path fill="#a7e576" d="m40.55,96.12c9.95,1.38 20.03-.2 29.96,1.31-1.05,1.31-2.06,2.65-3.09,3.97-7-.68-14.25-1.44-21.13,.45-2.02-1.15-4-2.39-5.93-3.68 .05-.51 .14-1.54 .19-2.05z"/>
<path fill="#b8ec8f" d="m46.29,101.85c6.88-1.89 14.13-1.13 21.13-.45-2.08,2.7-4.05,5.48-6.15,8.16-5.12-2.31-10.07-4.98-14.98-7.71z"/>
<path opacity=".15" d="m55.43,110.21c2.73,1.17 6.78,3.75 8.96,.41 8.56-.08 17.09,.59 25.62,1.1 6.15,.74 12.45,.92 18.37,2.9 1.28,.35 2.12,1.4 2.86,2.45-2.23,2.08-5.39,2.29-8.24,2.86-17.16,2.85-34.64,2.5-51.98,2.34-5.69,.17-11.34-.75-17-1.19-5.53-.94-11.61-.86-16.45-4.02 1.63-2.27 4.43-3.07 7.05-3.51 7.06-1.16 14.17-2.1 21.34-2.21 3.19,.01 6.36-.4 9.47-1.13m-8.26,5.91c.08,1.95 2.35,1.76 3.75,2.12 10.67,1.15 21.95,2.09 32.24-1.54-3.36-2.11-7.43-2.01-11.23-2.21-3.33-.12-6.65-.85-9.98-.29-4.91,.75-10.14-.24-14.78,1.92z"/>
<path opacity=".27" d="m47.17,116.12c4.64-2.16 9.87-1.17 14.78-1.92 3.33-.56 6.65,.17 9.98,.29 3.8,.2 7.87,.1 11.23,2.21-10.29,3.63-21.57,2.69-32.24,1.54-1.4-.36-3.67-.17-3.75-2.12z"/>
</svg>

<?xml version="1.0" encoding="UTF-8" standalone="no"?>
<!-- Created with Inkscape (http://www.inkscape.org/) -->
<svg
   xmlns:svg="http://www.w3.org/2000/svg"
   xmlns="http://www.w3.org/2000/svg"
   version="1.0"
   width="128pt"
   height="128pt"
   viewBox="0 0 128 128"
   id="svg2">
  <defs
     id="defs50" />
  <g
     id="#69db0eff">
    <path
       d="M 121.41,12.46 C 123.07,10.9 124.83,13.15 124.1,14.87 C 123.01,26.06 117.46,36.23 111.73,45.68 C 110.75,46.29 109.76,46.86 108.74,47.39 C 108.55,47.16 108.17,46.69 107.98,46.45 C 112.79,38.6 117.59,30.41 119.57,21.33 C 111.87,30.58 104,39.68 95.31,48.04 C 94.41,47.7 93.51,47.36 92.61,47.02 C 103,36.23 113.55,25.29 121.41,12.46 z"
       id="path5"
       style="opacity:1;fill:#69db0e" />
  </g>
  <g
     id="#479409ff">
    <path
       d="M 95.31,48.04 C 104,39.68 111.87,30.58 119.57,21.33 C 117.59,30.41 112.79,38.6 107.98,46.45 C 104.92,50.37 99.39,49.94 95.31,48.04 z"
       id="path8"
       style="opacity:1;fill:#479409" />
  </g>
  <g
     id="#51aa0aff">
    <path
       d="M 95.31,48.04 C 99.39,49.94 104.92,50.37 107.98,46.45 C 108.17,46.69 108.55,47.16 108.74,47.39 C 109.76,46.86 110.75,46.29 111.73,45.68 C 106.95,54.47 101.16,62.71 95.22,70.73 C 93.48,71.41 91.7,72.03 89.98,72.78 C 90.2,71.9 90.41,71.02 90.61,70.13 C 84.07,70.05 77.52,70.35 70.99,69.92 C 71.51,69.15 72.01,68.37 72.5,67.59 C 72.11,67.12 71.34,66.2 70.95,65.73 C 78.63,60.03 85.72,53.64 92.61,47.02 C 93.51,47.36 94.41,47.7 95.31,48.04 z"
       id="path11"
       style="opacity:1;fill:#51aa0a" />
  </g>
  <g
     id="#4b9c09ff">
    <path
       d="M 12.48,63.89 C 12.04,62.09 11.92,58.05 14.93,59.37 C 18.09,61.76 20.23,65.27 23.42,67.65 C 31.28,73.94 41.88,77.69 51.94,75.54 C 58.91,73.74 65.16,69.9 70.95,65.73 C 71.34,66.2 72.11,67.12 72.5,67.59 C 72.01,68.37 71.51,69.15 70.99,69.92 C 62.96,75.05 53.98,80.19 44.09,79.34 C 33.19,78.79 23.3,72.94 15.99,65.09 C 16.46,70.83 19.31,76 22.77,80.47 C 24.63,82.89 26.48,85.33 28.52,87.59 C 29.43,88.58 30.34,89.55 31.27,90.52 C 30.38,90.59 28.6,90.72 27.7,90.78 L 27.44,90.8 C 20.4,83.26 13.05,74.73 12.48,63.89 z"
       id="path14"
       style="opacity:1;fill:#4b9c09" />
  </g>
  <g
     id="#5bbc0bff">
    <path
       d="M 15.99,65.09 C 23.3,72.94 33.19,78.79 44.09,79.34 C 53.98,80.19 62.96,75.05 70.99,69.92 C 77.52,70.35 84.07,70.05 90.61,70.13 C 90.41,71.02 90.2,71.9 89.98,72.78 C 86.79,76.98 83.87,81.43 80.11,85.16 C 80.68,83.7 81.17,82.21 81.65,80.72 C 76.9,79.95 73.01,83.08 69.84,86.16 C 68.33,87.35 66.65,88.54 64.66,88.61 C 56.83,89.2 48.81,89.11 41.24,86.79 C 35.01,84.9 29.49,80.32 22.77,80.47 C 19.31,76 16.46,70.83 15.99,65.09 z"
       id="path17"
       style="opacity:1;fill:#5bbc0b" />
  </g>
  <g
     id="#469108ff">
    <path
       d="M 89.98,72.78 C 91.7,72.03 93.48,71.41 95.22,70.73 C 90.48,77.55 85.35,84.1 80.23,90.65 C 79.27,90.41 77.34,89.93 76.38,89.69 C 77.05,88.73 77.76,87.79 78.49,86.87 C 79.02,86.29 79.56,85.72 80.11,85.16 C 83.87,81.43 86.79,76.98 89.98,72.78 z"
       id="path20"
       style="opacity:1;fill:#469108" />
  </g>
  <g
     id="#75cb2fff">
    <path
       d="M 22.77,80.47 C 29.49,80.32 35.01,84.9 41.24,86.79 C 37.01,87.15 32.77,87.52 28.52,87.59 C 26.48,85.33 24.63,82.89 22.77,80.47 z"
       id="path23"
       style="opacity:1;fill:#75cb2f" />
  </g>
  <g
     id="#70c82aff">
    <path
       d="M 69.84,86.16 C 73.01,83.08 76.9,79.95 81.65,80.72 C 81.17,82.21 80.68,83.7 80.11,85.16 C 79.56,85.72 79.02,86.29 78.49,86.87 C 75.61,86.54 72.72,86.35 69.84,86.16 z"
       id="path26"
       style="opacity:1;fill:#70c82a" />
  </g>
  <g
     id="#8bd74eff">
    <path
       d="M 64.66,88.61 C 66.65,88.54 68.33,87.35 69.84,86.16 C 72.72,86.35 75.61,86.54 78.49,86.87 C 77.76,87.79 77.05,88.73 76.38,89.69 C 75.15,91.46 73.91,93.21 72.57,94.89 C 71.07,92.05 67.58,92.88 64.95,92.73 C 55.47,93.05 45.97,92.46 36.5,93.01 C 36.46,93.57 36.36,94.69 36.32,95.24 C 34.53,93.79 32.86,92.19 31.27,90.52 C 30.34,89.55 29.43,88.58 28.52,87.59 C 32.77,87.52 37.01,87.15 41.24,86.79 C 48.81,89.11 56.83,89.2 64.66,88.61 z"
       id="path29"
       style="opacity:1;fill:#8bd74e" />
  </g>
  <g
     id="#397707ff">
    <path
       d="M 72.57,94.89 C 73.91,93.21 75.15,91.46 76.38,89.69 C 77.34,89.93 79.27,90.41 80.23,90.65 C 75.04,97.37 69.62,103.92 64.39,110.62 C 62.21,113.96 58.16,111.38 55.43,110.21 C 45.3,105.17 35.79,98.71 27.7,90.78 C 28.6,90.72 30.38,90.59 31.27,90.52 C 32.86,92.19 34.53,93.79 36.32,95.24 C 37.63,96.26 38.98,97.24 40.36,98.17 C 42.29,99.46 44.27,100.7 46.29,101.85 C 51.2,104.58 56.15,107.25 61.27,109.56 C 63.37,106.88 65.34,104.1 67.42,101.4 C 68.45,100.08 69.46,98.74 70.51,97.43 C 71.19,96.58 71.88,95.74 72.57,94.89 z"
       id="path32"
       style="opacity:1;fill:#397707" />
  </g>
  <g
     id="#99de62ff">
    <path
       d="M 36.5,93.01 C 45.97,92.46 55.47,93.05 64.95,92.73 C 67.58,92.88 71.07,92.05 72.57,94.89 C 71.88,95.74 71.19,96.58 70.51,97.43 C 60.58,95.92 50.5,97.5 40.55,96.12 C 40.5,96.63 40.41,97.66 40.36,98.17 C 38.98,97.24 37.63,96.26 36.32,95.24 C 36.36,94.69 36.46,93.57 36.5,93.01 z"
       id="path35"
       style="opacity:1;fill:#99de62" />
  </g>
  <g
     id="#a7e576ff">
    <path
       d="M 40.55,96.12 C 50.5,97.5 60.58,95.92 70.51,97.43 C 69.46,98.74 68.45,100.08 67.42,101.4 C 60.42,100.72 53.17,99.96 46.29,101.85 C 44.27,100.7 42.29,99.46 40.36,98.17 C 40.41,97.66 40.5,96.63 40.55,96.12 z"
       id="path38"
       style="opacity:1;fill:#a7e576" />
  </g>
  <g
     id="#b8ec8fff">
    <path
       d="M 46.29,101.85 C 53.17,99.96 60.42,100.72 67.42,101.4 C 65.34,104.1 63.37,106.88 61.27,109.56 C 56.15,107.25 51.2,104.58 46.29,101.85 z"
       id="path41"
       style="opacity:1;fill:#b8ec8f" />
  </g>
  <g
     id="#00000025">
    <path
       d="M 55.43,110.21 C 58.16,111.38 62.21,113.96 64.39,110.62 C 72.95,110.54 81.48,111.21 90.01,111.72 C 96.16,112.46 102.46,112.64 108.38,114.62 C 109.66,114.97 110.5,116.02 111.24,117.07 C 109.01,119.15 105.85,119.36 103,119.93 C 85.84,122.78 68.36,122.43 51.02,122.27 C 45.33,122.44 39.68,121.52 34.02,121.08 C 28.49,120.14 22.41,120.22 17.57,117.06 C 19.2,114.79 22,113.99 24.62,113.55 C 31.68,112.39 38.79,111.45 45.96,111.34 C 49.15,111.35 52.32,110.94 55.43,110.21 M 47.17,116.12 C 47.25,118.07 49.52,117.88 50.92,118.24 C 61.59,119.39 72.87,120.33 83.16,116.7 C 79.8,114.59 75.73,114.69 71.93,114.49 C 68.6,114.37 65.28,113.64 61.95,114.2 C 57.04,114.95 51.81,113.96 47.17,116.12 z"
       id="path44"
       style="opacity:0.15;fill:#000000" />
  </g>
  <g
     id="#00000045">
    <path
       d="M 47.17,116.12 C 51.81,113.96 57.04,114.95 61.95,114.2 C 65.28,113.64 68.6,114.37 71.93,114.49 C 75.73,114.69 79.8,114.59 83.16,116.7 C 72.87,120.33 61.59,119.39 50.92,118.24 C 49.52,117.88 47.25,118.07 47.17,116.12 z"
       id="path47"
       style="opacity:0.27000002;fill:#000000" />
  </g>
</svg>
